resources/svg/magsafe-o.svg

<svg xmlns="http://www.w3.org/2000/svg" viewBox="0 0 15 15" fill="none"><path d="M3.5 2.5v-2h8v2m-6 9V15m4-3.5V15m-5-5.5v2h6v-2m-9-7h12v7h-12v-7z" stroke="currentColor"/></svg>

<svg xmlns="http://www.w3.org/2000/svg" viewBox="0 0 15 15" fill="none"><path d="M3.5 2.5V0.5H11.5V2.5M5.5 11.5V15M9.5 11.5V15M4.5 9.5V11.5H10.5V9.5M1.5 2.5H13.5V9.5H1.5V2.5Z" stroke="black"/></svg>
